images/jguzmanlogo-alt.svg

<svg fill="none" height="169" viewBox="0 0 177 169" width="177" xmlns="http://www.w3.org/2000/svg" xmlns:xlink="http://www.w3.org/1999/xlink"><mask id="a" fill="#000" height="130" maskUnits="userSpaceOnUse" width="177" x="0" y="40"><path d="m0 40h177v130h-177z" fill="#fff"/><path clip-rule="evenodd" d="m86.6051 97.5238-5.3682 31.7252c-1.6125 12.023-6.7282 21.541-15.3469 28.555-8.6188 7.013-19.2949 10.408-32.0284 10.186-6.2278-.112-12.1775-1.475-17.8492-4.091-5.6717-2.561-10.34248-6.095-14.0124-10.604l11.677-14.361c5.2269 6.624 11.7882 10.047 19.6841 10.27 6.1166.223 11.3434-1.392 15.6806-4.843 4.3372-3.395 7.2842-8.21 8.8412-14.444l1.3345-5.427 8.7153-55.637 3.3787-18.1698 1.4343-8.6832h23.2543l-4.7854 28.2814c2.3229-6.2359 5.4794-11.7008 9.4694-16.3945 7.451-8.7554 16.821-13.0495 28.108-12.8822 9.62.2231 16.793 2.7085 21.519 9.4563l1.726-8.6996h22.963l-14.763 87.4146c-1.613 12.046-6.728 21.582-15.347 28.608-8.619 7.027-19.295 10.429-32.028 10.206-6.228-.112-12.178-1.478-17.8496-4.099-5.6717-2.565-10.3425-6.107-14.0124-10.624l11.677-14.388c5.2269 6.637 11.788 10.066 19.684 10.289 6.117.223 11.344-1.394 15.681-4.851 4.337-3.402 7.284-8.226 8.841-14.472l1.334-5.437c-6.561 6.58-13.929 10.759-22.103 10.536-8.785-.112-15.764-3.374-20.9348-9.787-5.1712-6.469-8.0071-14.862-8.5075-25.1788-.0385-.7855-.0607-1.6036-.0666-2.4544zm26.8399 12.9102c-2.168-3.178-3.252-7.389-3.252-12.6307-.056-2.5095.111-5.7998.5-9.8708 1.056-8.3092 3.67-14.9734 7.84-19.9924 4.171-5.019 9.258-8.4449 15.264-8.2776 6.45.2231 10.871 2.9557 13.262 8.1978l-5.992 38.3187c-4.948 5.688-11.635 9.414-18.03 9.191-4.17-.167-7.367-1.813-9.592-4.936z" fill="#000" fill-rule="evenodd"/></mask><circle cx="86" cy="15" fill="#000" r="15"/><path clip-rule="evenodd" d="m86.6051 97.5238-5.3682 31.7252c-1.6125 12.023-6.7282 21.541-15.3469 28.555-8.6188 7.013-19.2949 10.408-32.0284 10.186-6.2278-.112-12.1775-1.475-17.8492-4.091-5.6717-2.561-10.34248-6.095-14.0124-10.604l11.677-14.361c5.2269 6.624 11.7882 10.047 19.6841 10.27 6.1166.223 11.3434-1.392 15.6806-4.843 4.3372-3.395 7.2842-8.21 8.8412-14.444l1.3345-5.427 8.7153-55.637 3.3787-18.1698 1.4343-8.6832h23.2543l-4.7854 28.2814c2.3229-6.2359 5.4794-11.7008 9.4694-16.3945 7.451-8.7554 16.821-13.0495 28.108-12.8822 9.62.2231 16.793 2.7085 21.519 9.4563l1.726-8.6996h22.963l-14.763 87.4146c-1.613 12.046-6.728 21.582-15.347 28.608-8.619 7.027-19.295 10.429-32.028 10.206-6.228-.112-12.178-1.478-17.8496-4.099-5.6717-2.565-10.3425-6.107-14.0124-10.624l11.677-14.388c5.2269 6.637 11.788 10.066 19.684 10.289 6.117.223 11.344-1.394 15.681-4.851 4.337-3.402 7.284-8.226 8.841-14.472l1.334-5.437c-6.561 6.58-13.929 10.759-22.103 10.536-8.785-.112-15.764-3.374-20.9348-9.787-5.1712-6.469-8.0071-14.862-8.5075-25.1788-.0385-.7855-.0607-1.6036-.0666-2.4544zm26.8399 12.9102c-2.168-3.178-3.252-7.389-3.252-12.6307-.056-2.5095.111-5.7998.5-9.8708 1.056-8.3092 3.67-14.9734 7.84-19.9924 4.171-5.019 9.258-8.4449 15.264-8.2776 6.45.2231 10.871 2.9557 13.262 8.1978l-5.992 38.3187c-4.948 5.688-11.635 9.414-18.03 9.191-4.17-.167-7.367-1.813-9.592-4.936z" fill="#fff" fill-rule="evenodd"/><path d="m68.4267 68.9304.1258-.8035-.9879-.1547-.1259.8034zm12.8102 60.3186-.986-.166-.0028.016-.0023.017zm5.3682-31.7252.9999-.007-1.9859-.1599zm-20.7151 60.2802.6311.775zm-32.0284 10.186-.0179 1h.0004zm-17.8492-4.091.4189-.908-.0074-.004zm-14.0124-10.604-.77588-.631-.513257.631.513587.631zm11.677-14.361.785-.619-.7733-.98-.7876.969zm19.6841 10.27.0364-.999-.0082-.001zm15.6806-4.843-.6164-.787-.0062.005zm8.8412-14.444.9702.243.0008-.004zm1.3345-5.427.9711.239.0102-.042.0066-.042zm8.7153-55.637-.9831-.1828-.0026.014-.0023.0141zm3.3787-18.1698.9832.1828.0018-.0099.0017-.0099zm1.4343-8.6832v-1h-.8484l-.1382.837zm23.2543 0 .986.1668.1974-1.1668h-1.1834zm-4.7854 28.2814-.986-.1668 1.9231.5159zm9.4694-16.3945-.7614-.6481-.0004.0004zm28.108-12.8822.024-.9998-.009-.0001zm21.519 9.4563-.819.5737 1.345 1.9191.455-2.2983zm1.726-8.6996v-1h-.821l-.16.8054zm22.963 0 .986.1665.197-1.1665h-1.183zm-14.763 87.4146-.986-.167-.003.017-.002.017zm-15.347 28.608-.632-.775zm-32.028 10.206-.018 1zm-17.8496-4.099.4195-.908-.0074-.003zm-14.0124-10.624-.7765-.63-.5117.631.5121.63zm11.677-14.388.7856-.618-.7739-.983-.7881.971zm19.684 10.289.037-.999h-.009zm15.681-4.851-.617-.787-.007.005zm8.841-14.472.97.242.001-.003zm1.334-5.437.972.238.855-3.487-2.535 2.543zm-22.103 10.536.028-1h-.008-.007zm-20.9348-9.787-.7811.624.0027.004zm-8.5075-25.1788.9988-.0485v-.0005zm23.5213-2.1749h1v-.0111l-.001-.0111zm3.252 12.6307-.826.564.006.008.006.009zm-2.752-22.5015-.992-.1261-.002.0155-.001.0155zm23.104-28.27.034-.9994-.006-.0002zm13.262 8.1978.988.1544.046-.2964-.125-.273zm-5.992 38.3187.755.657.189-.218.044-.284zm-18.03 9.191-.04.999h.005zm-40.8141 14.046 5.3681-31.7254-1.9719-.3337-5.3682 31.7261zm-15.7018 29.163c8.8351-7.189 14.0639-16.947 15.7069-29.197l-1.9822-.266c-1.5821 11.796-6.5845 21.075-14.987 27.912zm-32.677 10.411c12.9329.226 23.8488-3.227 32.677-10.411l-1.2623-1.551c-8.4093 6.843-18.8456 10.181-31.3797 9.962zm-18.2505-4.183c5.7972 2.674 11.8834 4.069 18.2501 4.183l.0357-2c-6.0887-.109-11.9019-1.441-17.4481-3.999zm-14.36915-10.881c3.77472 4.638 8.57356 8.264 14.37655 10.884l.8229-1.823c-5.5405-2.501-10.08324-5.943-13.64835-10.323zm11.67665-15.622-11.67698 14.36 1.55176 1.262 11.67702-14.361zm20.4882 9.9c-7.5774-.213-13.8696-3.48-18.9273-9.889l-1.57 1.239c5.3961 6.838 12.2266 10.418 20.4409 10.65zm15.0298-4.625c-4.1306 3.287-9.1169 4.841-15.0216 4.626l-.0727 1.998c6.3283.231 11.7957-1.444 16.3395-5.059zm8.4936-13.904c-1.5124 6.056-4.3538 10.663-8.4874 13.899l1.2328 1.575c4.5407-3.555 7.5935-8.577 9.195-14.989zm1.3336-5.424-1.3345 5.427 1.9421.478 1.3346-5.427zm8.6984-55.5527-8.7153 55.6377 1.9759.309 8.7154-55.6372zm3.3836-18.1979-3.3787 18.1698 1.9662.3656 3.3788-18.1698zm1.4308-8.6634-1.4343 8.6832 1.9733.326 1.4342-8.6832zm24.2409-.837h-23.2543v2h23.2543zm-3.7994 29.4482 4.7854-28.2814-1.972-.3336-4.7854 28.2814zm-.0489.1823c2.2856-6.1358 5.3854-11.4977 9.2943-16.096l-1.5238-1.2953c-4.0712 4.7892-7.2844 10.357-9.6447 16.6931zm9.2943-16.0955c7.261-8.5331 16.348-12.6932 27.332-12.5304l.029-1.9998c-11.592-.1718-21.244 4.2562-28.8844 13.234zm27.323-12.5306c9.461.2194 16.255 2.6502 20.723 9.0303l1.639-1.1474c-4.984-7.1155-12.537-9.6556-22.315-9.8823zm22.523 8.6511 1.726-8.6996-1.962-.3891-1.725 8.6997zm.745-7.8941h22.963v-2h-22.963zm21.977-1.1666-14.763 87.4142 1.972.333 14.763-87.4141zm-14.768 87.4482c-1.582 11.819-6.585 21.116-14.988 27.966l1.264 1.55c8.835-7.202 14.063-16.978 15.706-29.25zm-14.988 27.966c-8.409 6.856-18.845 10.2-31.379 9.981l-.035 2c12.933.226 23.85-3.233 32.678-10.431zm-31.379 9.981c-6.088-.109-11.901-1.444-17.4471-4.007l-.839 1.816c5.7971 2.679 11.8841 4.077 18.2511 4.191zm-17.4545-4.01c-5.5403-2.506-10.0831-5.955-13.6484-10.343l-1.5522 1.261c3.7745 4.646 8.5733 8.279 14.3764 10.904zm-13.648-9.083 11.677-14.387-1.5529-1.261-11.6771 14.388zm10.1149-14.399c5.3958 6.851 12.2266 10.438 20.4416 10.67l.056-1.999c-7.576-.214-13.8685-3.487-18.9264-9.908zm20.4336 10.67c6.329.231 11.796-1.447 16.34-5.069l-1.247-1.564c-4.13 3.293-9.116 4.849-15.02 4.634zm16.334-5.064c4.54-3.562 7.593-8.593 9.194-15.017l-1.94-.484c-1.513 6.068-4.355 10.685-8.488 13.927zm9.195-15.02 1.335-5.438-1.943-.476-1.334 5.437zm-.345-6.382c-6.46 6.479-13.578 10.455-21.367 10.242l-.055 2c8.558.233 16.176-4.149 22.839-10.83zm-21.382 10.242c-8.51-.108-15.199-3.251-20.1693-9.415l-1.5569 1.256c5.3721 6.662 12.6402 10.044 21.7012 10.159zm-20.1667-9.411c-5.0105-6.268-7.797-14.444-8.2898-24.6033l-1.9976.0973c.5081 10.474 3.3932 19.084 8.7252 25.754zm-8.2898-24.6038c-.0378-.7704-.0597-1.5744-.0655-2.4124l-1.9999.0139c.006.8637.0285 1.6959.0678 2.4963zm21.5225-2.1259c0 5.3717 1.11 9.7997 3.426 13.1947l1.652-1.127c-2.02-2.962-3.078-6.956-3.078-12.0677zm.505-9.9659c-.391 4.089-.562 7.4228-.505 9.988l1.999-.0443c-.054-2.4538.109-5.7005.496-9.7534zm8.066-20.5364c-4.322 5.2016-6.989 12.0603-8.063 20.5054l1.984.2523c1.039-8.1735 3.599-14.643 7.617-19.4795zm16.061-8.6381c-6.442-.1794-11.795 3.5045-16.061 8.6381l1.538 1.2782c4.076-4.9044 8.898-8.0722 14.467-7.9171zm14.143 8.7824c-1.268-2.7807-3.096-4.9352-5.492-6.4166-2.39-1.4775-5.287-2.2495-8.645-2.3656l-.069 1.9988c3.093.107 5.632.8128 7.662 2.068 2.024 1.2511 3.602 3.084 4.725 5.5454zm-5.913 38.8887 5.992-38.3193-1.976-.3089-5.992 38.3192zm-19.053 10.035c6.794.237 13.748-3.703 18.82-9.533l-1.509-1.313c-4.825 5.546-11.245 9.057-17.241 8.847zm-10.371-5.354c2.421 3.399 5.918 5.176 10.366 5.354l.08-1.998c-3.892-.157-6.79-1.67-8.817-4.517z" fill="#000" mask="url(#a)"/></svg>

<svg width="177" height="169" viewBox="0 0 177 169" fill="none" xmlns="http://www.w3.org/2000/svg">
<circle cx="86" cy="15" r="15" fill="black"/>
<mask id="path-2-outside-1" maskUnits="userSpaceOnUse" x="0" y="40" width="177" height="130" fill="black">
<rect fill="white" y="40" width="177" height="130"/>
<path fill-rule="evenodd" clip-rule="evenodd" d="M86.6051 97.5238L81.2369 129.249C79.6244 141.272 74.5087 150.79 65.89 157.804C57.2712 164.817 46.5951 168.212 33.8616 167.99C27.6338 167.878 21.6841 166.515 16.0124 163.899C10.3407 161.338 5.66992 157.804 2 153.295L13.677 138.934C18.9039 145.558 25.4652 148.981 33.3611 149.204C39.4777 149.427 44.7045 147.812 49.0417 144.361C53.3789 140.966 56.3259 136.151 57.8829 129.917L59.2174 124.49L67.9327 68.853L71.3114 50.6832L72.7457 42L96 42L91.2146 70.2814C93.5375 64.0455 96.694 58.5806 100.684 53.8869C108.135 45.1315 117.505 40.8374 128.792 41.0047C138.412 41.2278 145.585 43.7132 150.311 50.461L152.037 41.7614H175L160.237 129.176C158.624 141.222 153.509 150.758 144.89 157.784C136.271 164.811 125.595 168.213 112.862 167.99C106.634 167.878 100.684 166.512 95.0124 163.891C89.3407 161.326 84.6699 157.784 81 153.267L92.677 138.879C97.9039 145.516 104.465 148.945 112.361 149.168C118.478 149.391 123.705 147.774 128.042 144.317C132.379 140.915 135.326 136.091 136.883 129.845L138.217 124.408C131.656 130.988 124.288 135.167 116.114 134.944C107.329 134.832 100.35 131.57 95.1792 125.157C90.008 118.688 87.1721 110.295 86.6717 99.9782C86.6332 99.1927 86.611 98.3746 86.6051 97.5238ZM113.445 110.434C111.277 107.256 110.193 103.045 110.193 97.8033C110.137 95.2938 110.304 92.0035 110.693 87.9325C111.749 79.6233 114.363 72.9591 118.533 67.9401C122.704 62.9211 127.791 59.4952 133.797 59.6625C140.247 59.8856 144.668 62.6182 147.059 67.8603L141.067 106.179C136.119 111.867 129.432 115.593 123.037 115.37C118.867 115.203 115.67 113.557 113.445 110.434Z"/>
</mask>
<path fill-rule="evenodd" clip-rule="evenodd" d="M86.6051 97.5238L81.2369 129.249C79.6244 141.272 74.5087 150.79 65.89 157.804C57.2712 164.817 46.5951 168.212 33.8616 167.99C27.6338 167.878 21.6841 166.515 16.0124 163.899C10.3407 161.338 5.66992 157.804 2 153.295L13.677 138.934C18.9039 145.558 25.4652 148.981 33.3611 149.204C39.4777 149.427 44.7045 147.812 49.0417 144.361C53.3789 140.966 56.3259 136.151 57.8829 129.917L59.2174 124.49L67.9327 68.853L71.3114 50.6832L72.7457 42L96 42L91.2146 70.2814C93.5375 64.0455 96.694 58.5806 100.684 53.8869C108.135 45.1315 117.505 40.8374 128.792 41.0047C138.412 41.2278 145.585 43.7132 150.311 50.461L152.037 41.7614H175L160.237 129.176C158.624 141.222 153.509 150.758 144.89 157.784C136.271 164.811 125.595 168.213 112.862 167.99C106.634 167.878 100.684 166.512 95.0124 163.891C89.3407 161.326 84.6699 157.784 81 153.267L92.677 138.879C97.9039 145.516 104.465 148.945 112.361 149.168C118.478 149.391 123.705 147.774 128.042 144.317C132.379 140.915 135.326 136.091 136.883 129.845L138.217 124.408C131.656 130.988 124.288 135.167 116.114 134.944C107.329 134.832 100.35 131.57 95.1792 125.157C90.008 118.688 87.1721 110.295 86.6717 99.9782C86.6332 99.1927 86.611 98.3746 86.6051 97.5238ZM113.445 110.434C111.277 107.256 110.193 103.045 110.193 97.8033C110.137 95.2938 110.304 92.0035 110.693 87.9325C111.749 79.6233 114.363 72.9591 118.533 67.9401C122.704 62.9211 127.791 59.4952 133.797 59.6625C140.247 59.8856 144.668 62.6182 147.059 67.8603L141.067 106.179C136.119 111.867 129.432 115.593 123.037 115.37C118.867 115.203 115.67 113.557 113.445 110.434Z" fill="white"/>
<path d="M68.4267 68.9304L68.5525 68.1269L67.5646 67.9722L67.4387 68.7756L68.4267 68.9304ZM81.2369 129.249L80.2509 129.083L80.2481 129.099L80.2458 129.116L81.2369 129.249ZM86.6051 97.5238L87.605 97.5168L85.6191 97.3569L86.6051 97.5238ZM65.89 157.804L66.5211 158.579L66.5211 158.579L65.89 157.804ZM33.8616 167.99L33.8437 168.99L33.8441 168.99L33.8616 167.99ZM16.0124 163.899L16.4313 162.991L16.4239 162.987L16.0124 163.899ZM2 153.295L1.22412 152.664L0.710863 153.295L1.22445 153.926L2 153.295ZM13.677 138.934L14.462 138.315L13.6887 137.335L12.9011 138.304L13.677 138.934ZM33.3611 149.204L33.3975 148.205L33.3893 148.204L33.3611 149.204ZM49.0417 144.361L48.4253 143.574L48.4191 143.579L49.0417 144.361ZM57.8829 129.917L58.8531 130.16L58.8539 130.156L57.8829 129.917ZM59.2174 124.49L60.1885 124.729L60.1987 124.687L60.2053 124.645L59.2174 124.49ZM67.9327 68.853L66.9496 68.6702L66.947 68.6842L66.9447 68.6983L67.9327 68.853ZM71.3114 50.6832L72.2946 50.866L72.2964 50.8561L72.2981 50.8462L71.3114 50.6832ZM72.7457 42L72.7457 41L71.8973 41L71.7591 41.837L72.7457 42ZM96 42L96.986 42.1668L97.1834 41L96 41L96 42ZM91.2146 70.2814L90.2286 70.1146L92.1517 70.6305L91.2146 70.2814ZM100.684 53.8869L99.9226 53.2388L99.9222 53.2392L100.684 53.8869ZM128.792 41.0047L128.816 40.0049L128.807 40.0048L128.792 41.0047ZM150.311 50.461L149.492 51.0347L150.837 52.9538L151.292 50.6555L150.311 50.461ZM152.037 41.7614V40.7614H151.216L151.056 41.5668L152.037 41.7614ZM175 41.7614L175.986 41.9279L176.183 40.7614H175V41.7614ZM160.237 129.176L159.251 129.009L159.248 129.026L159.246 129.043L160.237 129.176ZM144.89 157.784L144.258 157.009L144.258 157.009L144.89 157.784ZM112.862 167.99L112.844 168.99L112.844 168.99L112.862 167.99ZM95.0124 163.891L95.4319 162.983L95.4245 162.98L95.0124 163.891ZM81 153.267L80.2235 152.637L79.7118 153.268L80.2239 153.898L81 153.267ZM92.677 138.879L93.4626 138.261L92.6887 137.278L91.9006 138.249L92.677 138.879ZM112.361 149.168L112.398 148.169L112.389 148.169L112.361 149.168ZM128.042 144.317L127.425 143.53L127.418 143.535L128.042 144.317ZM136.883 129.845L137.853 130.087L137.854 130.084L136.883 129.845ZM138.217 124.408L139.189 124.646L140.044 121.159L137.509 123.702L138.217 124.408ZM116.114 134.944L116.142 133.944L116.134 133.944L116.127 133.944L116.114 134.944ZM95.1792 125.157L94.3981 125.781L94.4008 125.785L95.1792 125.157ZM86.6717 99.9782L87.6705 99.9297L87.6705 99.9292L86.6717 99.9782ZM110.193 97.8033H111.193V97.7922L111.192 97.7811L110.193 97.8033ZM113.445 110.434L112.619 110.998L112.625 111.006L112.631 111.015L113.445 110.434ZM110.693 87.9325L109.701 87.8064L109.699 87.8219L109.698 87.8374L110.693 87.9325ZM133.797 59.6625L133.831 58.6631L133.825 58.6629L133.797 59.6625ZM147.059 67.8603L148.047 68.0147L148.093 67.7183L147.968 67.4453L147.059 67.8603ZM141.067 106.179L141.822 106.836L142.011 106.618L142.055 106.334L141.067 106.179ZM123.037 115.37L122.997 116.369L123.002 116.369L123.037 115.37ZM82.2229 129.416L87.591 97.6906L85.6191 97.3569L80.2509 129.083L82.2229 129.416ZM66.5211 158.579C75.3562 151.39 80.585 141.632 82.228 129.382L80.2458 129.116C78.6637 140.912 73.6613 150.191 65.2588 157.028L66.5211 158.579ZM33.8441 168.99C46.777 169.216 57.6929 165.763 66.5211 158.579L65.2588 157.028C56.8495 163.871 46.4132 167.209 33.8791 166.99L33.8441 168.99ZM15.5936 164.807C21.3908 167.481 27.477 168.876 33.8437 168.99L33.8794 166.99C27.7907 166.881 21.9775 165.549 16.4313 162.991L15.5936 164.807ZM1.22445 153.926C4.99917 158.564 9.79801 162.19 15.601 164.81L16.4239 162.987C10.8834 160.486 6.34066 157.044 2.77555 152.664L1.22445 153.926ZM12.9011 138.304L1.22412 152.664L2.77588 153.926L14.4529 139.565L12.9011 138.304ZM33.3893 148.204C25.8119 147.991 19.5197 144.724 14.462 138.315L12.892 139.554C18.2881 146.392 25.1186 149.972 33.3329 150.204L33.3893 148.204ZM48.4191 143.579C44.2885 146.866 39.3022 148.42 33.3975 148.205L33.3248 150.203C39.6531 150.434 45.1205 148.759 49.6643 145.144L48.4191 143.579ZM56.9127 129.675C55.4003 135.731 52.5589 140.338 48.4253 143.574L49.6581 145.149C54.1988 141.594 57.2516 136.572 58.8531 130.16L56.9127 129.675ZM58.2463 124.251L56.9118 129.678L58.8539 130.156L60.1885 124.729L58.2463 124.251ZM66.9447 68.6983L58.2294 124.336L60.2053 124.645L68.9207 69.0078L66.9447 68.6983ZM70.3283 50.5004L66.9496 68.6702L68.9158 69.0358L72.2946 50.866L70.3283 50.5004ZM71.7591 41.837L70.3248 50.5202L72.2981 50.8462L73.7323 42.163L71.7591 41.837ZM96 41L72.7457 41L72.7457 43L96 43L96 41ZM92.2006 70.4482L96.986 42.1668L95.014 41.8332L90.2286 70.1146L92.2006 70.4482ZM92.1517 70.6305C94.4373 64.4947 97.5371 59.1328 101.446 54.5345L99.9222 53.2392C95.851 58.0284 92.6378 63.5962 90.2775 69.9323L92.1517 70.6305ZM101.446 54.535C108.707 46.0019 117.794 41.8418 128.778 42.0046L128.807 40.0048C117.215 39.833 107.563 44.261 99.9226 53.2388L101.446 54.535ZM128.769 42.0044C138.23 42.2238 145.024 44.6546 149.492 51.0347L151.131 49.8873C146.147 42.7718 138.594 40.2317 128.816 40.005L128.769 42.0044ZM151.292 50.6555L153.018 41.9559L151.056 41.5668L149.331 50.2665L151.292 50.6555ZM152.037 42.7614H175V40.7614H152.037V42.7614ZM174.014 41.5948L159.251 129.009L161.223 129.342L175.986 41.9279L174.014 41.5948ZM159.246 129.043C157.664 140.862 152.661 150.159 144.258 157.009L145.522 158.559C154.357 151.357 159.585 141.581 161.228 129.309L159.246 129.043ZM144.258 157.009C135.849 163.865 125.413 167.209 112.879 166.99L112.844 168.99C125.777 169.216 136.694 165.757 145.522 158.559L144.258 157.009ZM112.879 166.99C106.791 166.881 100.978 165.546 95.4319 162.983L94.5929 164.799C100.39 167.478 106.477 168.876 112.844 168.99L112.879 166.99ZM95.4245 162.98C89.8842 160.474 85.3414 157.025 81.7761 152.637L80.2239 153.898C83.9984 158.544 88.7972 162.177 94.6003 164.802L95.4245 162.98ZM81.7765 153.897L93.4535 139.51L91.9006 138.249L80.2235 152.637L81.7765 153.897ZM91.8914 139.498C97.2872 146.349 104.118 149.936 112.333 150.168L112.389 148.169C104.813 147.955 98.5205 144.682 93.4626 138.261L91.8914 139.498ZM112.325 150.168C118.654 150.399 124.121 148.721 128.665 145.099L127.418 143.535C123.288 146.828 118.302 148.384 112.398 148.169L112.325 150.168ZM128.659 145.104C133.199 141.542 136.252 136.511 137.853 130.087L135.913 129.603C134.4 135.671 131.558 140.288 127.425 143.53L128.659 145.104ZM137.854 130.084L139.189 124.646L137.246 124.17L135.912 129.607L137.854 130.084ZM137.509 123.702C131.049 130.181 123.931 134.157 116.142 133.944L116.087 135.944C124.645 136.177 132.263 131.795 138.926 125.114L137.509 123.702ZM116.127 133.944C107.617 133.836 100.928 130.693 95.9577 124.529L94.4008 125.785C99.7729 132.447 107.041 135.829 116.102 135.944L116.127 133.944ZM95.9603 124.533C90.9498 118.265 88.1633 110.089 87.6705 99.9297L85.6729 100.027C86.181 110.501 89.0661 119.111 94.3981 125.781L95.9603 124.533ZM87.6705 99.9292C87.6327 99.1588 87.6108 98.3548 87.605 97.5168L85.6051 97.5307C85.6111 98.3944 85.6336 99.2266 85.6729 100.027L87.6705 99.9292ZM109.193 97.8033C109.193 103.175 110.303 107.603 112.619 110.998L114.271 109.871C112.251 106.909 111.193 102.915 111.193 97.8033H109.193ZM109.698 87.8374C109.307 91.9264 109.136 95.2602 109.193 97.8254L111.192 97.7811C111.138 95.3273 111.301 92.0806 111.688 88.0277L109.698 87.8374ZM117.764 67.301C113.442 72.5026 110.775 79.3613 109.701 87.8064L111.685 88.0587C112.724 79.8852 115.284 73.4157 119.302 68.5792L117.764 67.301ZM133.825 58.6629C127.383 58.4835 122.03 62.1674 117.764 67.301L119.302 68.5792C123.378 63.6748 128.2 60.507 133.769 60.6621L133.825 58.6629ZM147.968 67.4453C146.7 64.6646 144.872 62.5101 142.476 61.0287C140.086 59.5512 137.189 58.7792 133.831 58.6631L133.762 60.6619C136.855 60.7689 139.394 61.4747 141.424 62.7299C143.448 63.981 145.026 65.8139 146.149 68.2753L147.968 67.4453ZM142.055 106.334L148.047 68.0147L146.071 67.7058L140.079 106.025L142.055 106.334ZM123.002 116.369C129.796 116.606 136.75 112.666 141.822 106.836L140.313 105.523C135.488 111.069 129.068 114.58 123.072 114.37L123.002 116.369ZM112.631 111.015C115.052 114.414 118.549 116.191 122.997 116.369L123.077 114.371C119.185 114.214 116.287 112.701 114.26 109.854L112.631 111.015Z" fill="black" mask="url(#path-2-outside-1)"/>
</svg>
